X:153
T:Tommy an Lord's
R:polka
S:Cormac Begley on Youtube
H:A polka version of "Johnny's Wedding", reel#684
Z:id:hn-polka-153
M:2/4
L:1/8
K:Edor
GE BE | GE EG | FD AD | FD DE/F/ | GE BE | GE EG | FD B,D | E2 E>F |
GE BE | GE EG | FD AD | FD DF | E/F/G FA | GB Ac | Be dg | e2 e>f ||
ga/g/ fe | dB B>c | dB AG | FD D2 | ge f/g/f/e/ | dB BA | Be df | e2 e>f |
ga/g/ fe | dB B>c | dB AG | FD DF | E/F/G FA | GB Ac | Be dg | e2 e>F ||

